dist/assets/images/icons/ico-slide-10.svg

<svg width="30" height="38" viewBox="0 0 30 38" fill="none" xmlns="http://www.w3.org/2000/svg">
<path d="M1 36.4283V23.8568L10.7143 19.2854V23.8568L19.8571 19.2854V23.8568L29 19.2854V36.4283H1Z" stroke="#DF0112" stroke-width="1.5"/>
<path d="M7.2856 18.1429L2.71417 20.4286L3.85703 8.42859H6.71417L7.2856 18.1429Z" stroke="#0000FF" stroke-width="1.5"/>
<path d="M17.0006 17.5441L13.572 19.2856L14.4291 10.1427H16.572L17.0006 17.5441Z" stroke="#0000FF" stroke-width="1.5"/>
<path d="M4.55787 6.71429C4.55787 6.71429 5.52825 6.14286 5.52825 4.80952C5.52825 3.92369 4.87278 3.73272 4.55786 2.90476C4.26751 2.14142 4.55786 1 4.55786 1" stroke="#0000FF" stroke-width="1.5"/>
<path d="M14.8434 7.8576C14.8434 7.8576 15.8137 7.28617 15.8137 5.95283C15.8137 5.06701 15.1583 4.87603 14.8433 4.04807C14.553 3.28473 14.8434 2.14331 14.8434 2.14331" stroke="#0000FF" stroke-width="1.5"/>
<line x1="4.42882" y1="29.9641" x2="9.00025" y2="29.9641" stroke="#DF0112" stroke-width="1.5"/>
<line x1="12.4287" y1="29.9641" x2="17.0002" y2="29.9641" stroke="#DF0112" stroke-width="1.5"/>
<line x1="20.4287" y1="29.9641" x2="25.0001" y2="29.9641" stroke="#DF0112" stroke-width="1.5"/>
</svg>

<svg width="30" height="38" fill="none" xmlns="http://www.w3.org/2000/svg"><path d="M1 36.428V23.857l9.714-4.572v4.572l9.143-4.572v4.572L29 19.285v17.143H1z" stroke="#DF0112" stroke-width="1.5"/><path d="M7.286 18.143l-4.572 2.286 1.143-12h2.857l.572 9.714zM17 17.544l-3.428 1.742.857-9.143h2.143l.429 7.401zM4.558 6.714s.97-.571.97-1.904c0-.886-.655-1.077-.97-1.905-.29-.764 0-1.905 0-1.905m10.285 6.858s.97-.572.97-1.905c0-.886-.655-1.077-.97-1.905-.29-.763 0-1.905 0-1.905" stroke="#00F" stroke-width="1.5"/><path stroke="#DF0112" stroke-width="1.5" d="M4.429 29.964H9m3.429 0H17m3.429 0H25"/></svg>
